X:1
T:Title
%%score { ( 1 3 ) | 2 }
L:1/8
M:4/4
K:A
V:1 treble nm="Grand Piano"
V:3 treble 
V:2 bass 
V:1
 z4 z2[Q:1/4=94] [CE][CE] | [CA][CA][CA][CA] [Ec][CA][CA][CA] | BAFA E2 [CE][CE] | %3
 [CA][DG][EA]B cdec | B6 cd | eeed cBAA | [FB][FA][FA][DF] [CE]2 [CA][DB] | %7
 [Ec]3 [Gd] [EAc]2 [DGB]2 |[M:3/4] [CA]6 |[M:1/4] c>B |[M:4/4] A6 z2 | c6 z2 | B6 z2 | A6 z2 | %14
 [CA][CA][CA][CA] [CA][CE][EA]B | cBcd e2 cB | A3 E c2 B2 |[M:3/4] [CA]6 |] %18
V:2
 z4 z2 [A,,A,][A,,A,] | [A,,E,][A,,E,][A,,E,][A,,E,] [A,,A,][A,,A,][A,,A,][A,,A,] | %2
 [D,F,D][D,F,D][D,A,D][F,A,D] [A,C]2 [A,,A,][A,,A,] | %3
 [A,,E,][B,,E,][C,A,][E,G,E] [A,E][A,B,E][A,CE][A,E] | [E,G,E]6[K:treble] [A,E][A,B,E] | %5
 [A,CA][A,CA][A,CA][A,DA] [A,EA][K:bass][A,DE][A,CE][A,CE] | %6
 [D,D][D,D][D,D][D,A,] [A,,A,]2 [A,,A,][A,,A,] | [E,A,]3 [E,B,] E,2 E,2 |[M:3/4] A,,6 |[M:1/4] z2 | %10
[M:4/4] z2 [A,C]>[A,C] [A,C]2 z2 | z z/ [A,,A,]/ [C,A,]>[E,A,] A,2 z2 | z2 [E,E]>[E,E] [E,E]2 z2 | %13
 z z/ [A,C]/ [E,C]>[C,C] A,,2 [A,,A,]>[A,,A,] | %14
 [A,,A,][A,,A,][A,,A,][A,,A,] [A,,A,][A,,A,][C,A,][E,G,E] | %15
 [A,E][A,D][A,E][A,B,E] [A,CE]2 [A,E][A,D] | [E,A,C]3 [E,A,C] [E,A,E]2 [E,G,D]2 | %17
[M:3/4] [A,,A,]6 |] %18
V:3
 x8 | x8 | x8 | x8 | x8 | x8 | x8 | x8 |[M:3/4] x6 |[M:1/4] x2 |[M:4/4] z2 E>E E>E A>B | %11
 z z/ E/ E>E E2 d>c | z2 G>G G>A c>B | z z/ E/ E>E [CE]2 [Ec]>[DB] | x8 | x8 | x8 |[M:3/4] x6 |] %18

